src/symbolic/actions/twitter-home-symbolic.svg

<svg xmlns="http://www.w3.org/2000/svg" width="16" height="16" version="1.1">
 <path style="fill:#444444" d="M 8 0.75 L 0 8.5605 L 1.5195 10.105 L 2.6699 9.1309 L 3.5 15 L 12.5 15 L 13.33 9.1309 L 14.48 10.105 L 16 8.5605 L 8 0.75 z M 8 7 A 3 3 0 0 1 11 10 A 3 3 0 0 1 8 13 A 3 3 0 0 1 5 10 A 3 3 0 0 1 8 7 z"/>
</svg>

<svg xmlns="http://www.w3.org/2000/svg" width="16" height="16"><path d="M8 .75L0 8.56l1.52 1.545 1.15-.974L3.5 15h9l.83-5.87 1.15.975L16 8.56 8 .75zM8 7a3 3 0 0 1 3 3 3 3 0 0 1-3 3 3 3 0 0 1-3-3 3 3 0 0 1 3-3z" fill="#5d656b"/></svg>
